static/assets/images/exchanges/minswap.svg

<svg width="260" height="256" viewBox="0 0 260 256" fill="none" xmlns="http://www.w3.org/2000/svg">
<path d="M256.312 0.309714L159.811 45.7931C157.967 46.715 157.66 49.4809 159.503 50.4029C170.874 56.242 204.988 68.2275 223.428 97.4229C223.428 97.4229 181.632 57.7786 130 57.7786C78.3688 57.7786 36.572 97.4229 36.572 97.4229C55.0118 68.2275 89.1253 56.242 100.496 50.4029C102.34 49.4809 102.34 46.715 100.189 45.7931L3.68794 0.309714C2.15129 -0.304936 0 0.924353 0 2.76827V137.067C0 176.405 19.9763 213.283 53.4752 234.18C53.7825 234.487 54.0899 234.487 54.3972 234.795C85.4373 253.849 115.556 256 130 256C145.366 256 174.563 253.849 205.603 234.795C205.91 234.487 206.218 234.487 206.525 234.18C240.023 213.59 260 176.405 260 137.067V2.76827C259.692 0.617033 257.848 -0.612255 256.312 0.309714Z" fill="#89AAFF"/>
<path fill-rule="evenodd" clip-rule="evenodd" d="M34.3252 144.681C37.245 142.59 41.305 143.266 43.3935 146.189C44.8639 148.248 55.0578 161.798 71.716 161.294C71.7472 161.293 71.7784 161.293 71.8096 161.292C87.7667 161.039 97.4658 148.19 98.8953 146.189C100.984 143.266 105.044 142.59 107.964 144.681C110.883 146.773 111.557 150.838 109.469 153.762C107.827 156.061 94.8 173.922 72.0626 174.307C48.1822 175.005 34.4214 156.004 32.8197 153.762C30.7312 150.838 31.4053 146.773 34.3252 144.681Z" fill="#001947"/>
<path fill-rule="evenodd" clip-rule="evenodd" d="M152.032 144.681C154.951 142.59 159.012 143.266 161.1 146.189C162.57 148.248 172.765 161.798 189.423 161.294C189.454 161.293 189.485 161.293 189.516 161.292C205.474 161.039 215.173 148.19 216.602 146.189C218.69 143.266 222.751 142.59 225.67 144.681C228.59 146.773 229.264 150.838 227.176 153.762C225.534 156.061 212.507 173.922 189.77 174.307C165.889 175.005 152.128 156.004 150.526 153.762C148.438 150.838 149.112 146.773 152.032 144.681Z" fill="#001947"/>
<path d="M111.527 181.322L128.737 193C129.966 193.922 131.81 193.922 132.732 193L149.943 181.322C152.093 179.786 150.865 177.02 147.792 177.02H113.371C110.912 177.02 109.375 179.786 111.527 181.322Z" fill="#001947"/>
</svg>

<svg xmlns="http://www.w3.org/2000/svg" fill="none" viewBox="0 0 260 256"><path fill="#89AAFF" d="m256.312.31-96.501 45.483c-1.844.922-2.151 3.688-.308 4.61 11.371 5.839 45.485 17.825 63.925 47.02 0 0-41.796-39.644-93.428-39.644S36.572 97.423 36.572 97.423c18.44-29.195 52.553-41.181 63.924-47.02 1.844-.922 1.844-3.688-.307-4.61L3.688.31C2.15-.305 0 .924 0 2.768v134.299c0 39.338 19.976 76.216 53.475 97.113.307.307.615.307.922.615C85.437 253.849 115.556 256 130 256c15.366 0 44.563-2.151 75.603-21.205.307-.308.615-.308.922-.615C240.023 213.59 260 176.405 260 137.067V2.768c-.308-2.151-2.152-3.38-3.688-2.458"/><path fill="#001947" fill-rule="evenodd" d="M34.325 144.681a6.495 6.495 0 0 1 9.069 1.508c1.47 2.059 11.664 15.609 28.322 15.105l.094-.002c15.957-.253 25.656-13.102 27.085-15.103a6.496 6.496 0 0 1 9.069-1.508 6.516 6.516 0 0 1 1.505 9.081c-1.642 2.299-14.669 20.16-37.406 20.545-23.88.698-37.642-18.303-39.243-20.545a6.515 6.515 0 0 1 1.505-9.081m117.707 0a6.495 6.495 0 0 1 9.068 1.508c1.47 2.059 11.665 15.609 28.323 15.105l.093-.002c15.958-.253 25.657-13.102 27.086-15.103a6.495 6.495 0 0 1 9.068-1.508 6.515 6.515 0 0 1 1.506 9.081c-1.642 2.299-14.669 20.16-37.406 20.545-23.881.698-37.642-18.303-39.244-20.545a6.515 6.515 0 0 1 1.506-9.081" clip-rule="evenodd"/><path fill="#001947" d="M111.527 181.322 128.737 193c1.229.922 3.073.922 3.995 0l17.211-11.678c2.15-1.536.922-4.302-2.151-4.302h-34.421c-2.459 0-3.996 2.766-1.844 4.302"/></svg>
